X:231
T:Sean Reid's
T:The Peeler's Jacket
T:Gilbert Clancy's
M:4/4
L:1/8
R:reel
D:Mary Bergin: Feadoga Stain
D:Danu: Think before you think
Z:id:hn-reel-321
K:G
|:DG~G2 BG~G2|cA~A2 dcAd|DG~G2 ~B3d|cAdc AGGF|
DG~G2 BG~G2|cA~A2 dcAd|~g3a gfde|1 fdcA AGGF:|2 fdcA AGBd|
|:~g3a gfde|~f3g fdcA|dg~g2 gfde|fdcA AGG2|
~g3a gfde|~f3g fdcA|dg~g2 bgag|fdcA AGG2:|
